X: 353
T: The yellow wattle
C: anon.
O: Ireland
B: Francis O'Neill: "The Dance Music of Ireland" (1907) no. 353
R: Double jig
Z: Transcribed by Frank Nordberg - http://www.musicaviva.com
F: http://www.musicaviva.com/abc/tunes/ireland/oneill-1001/oneill-1001-035
3.abc
M: 6/8
L: 1/8
K: D
cdA AGE|ABA AGE|dcA AGE|GAG GED|dcA AGE|ABA AGE|dcA ABc|dcA GED:|
|:G2G AEE|AGG AEE|G2G AEE|AGG GEA|G2G AEE|AGG AEE|G2G ABc|dcA GED:|
|:DFA DED|DFA GED|DFA DED|DEF GED|DFA DEE|DFA GED|DFA ABc|dcA GED:|
|:E/F/GE FED|AFD FED|E/F/GE FED|GEA GED|E/F/GE FED|AFD FED|DFA ABc|dcA GE
D: |
W:
W:
W: From Musica Viva - http://www.musicaviva.com
W: the Internet center for free sheet music downloads.


